_assets/logos/semicom.svg

<?xml version="1.0" encoding="UTF-8" standalone="no"?>
<svg
   xmlns:dc="http://purl.org/dc/elements/1.1/"
   xmlns:cc="http://creativecommons.org/ns#"
   xmlns:rdf="http://www.w3.org/1999/02/22-rdf-syntax-ns#"
   xmlns:svg="http://www.w3.org/2000/svg"
   xmlns="http://www.w3.org/2000/svg"
   xmlns:sodipodi="http://sodipodi.sourceforge.net/DTD/sodipodi-0.dtd"
   xmlns:inkscape="http://www.inkscape.org/namespaces/inkscape"
   version="1.0"
   width="598"
   height="174.16856"
   viewBox="0 0 5980 1741.6856"
   preserveAspectRatio="xMidYMid meet"
   id="svg27"
   sodipodi:docname="semicom.svg"
   inkscape:version="0.92.5 (2060ec1f9f, 2020-04-08)">
  <metadata
     id="metadata33">
    <rdf:RDF>
      <cc:Work
         rdf:about="">
        <dc:format>image/svg+xml</dc:format>
        <dc:type
           rdf:resource="http://purl.org/dc/dcmitype/StillImage" />
        <dc:title></dc:title>
      </cc:Work>
    </rdf:RDF>
  </metadata>
  <defs
     id="defs31" />
  <sodipodi:namedview
     pagecolor="#ffffff"
     bordercolor="#666666"
     borderopacity="1"
     objecttolerance="10"
     gridtolerance="10"
     guidetolerance="10"
     inkscape:pageopacity="0"
     inkscape:pageshadow="2"
     inkscape:window-width="1845"
     inkscape:window-height="480"
     id="namedview29"
     showgrid="false"
     inkscape:zoom="1.5"
     inkscape:cx="125.62405"
     inkscape:cy="24.848126"
     inkscape:window-x="72"
     inkscape:window-y="27"
     inkscape:window-maximized="0"
     inkscape:current-layer="svg27"
     fit-margin-top="0"
     fit-margin-left="0"
     fit-margin-right="0"
     fit-margin-bottom="0" />
  <g
     id="layer101"
     style="fill:#000000;fill-rule:evenodd;stroke:#000000;stroke-width:10"
     transform="translate(-15,-631.87943)">
    <path
       d="m 200,1720 v 10 c 0,5 12,39 28,74 16,35 47,90 69,122 22,32 65,82 95,110 30,29 81,69 113,89 32,21 83,48 114,60 31,13 95,31 141,40 60,12 108,16 169,11 47,-3 113,-13 146,-21 33,-9 96,-33 140,-55 44,-22 107,-62 141,-89 33,-28 82,-79 109,-113 26,-35 64,-99 85,-143 20,-44 42,-105 49,-135 6,-31 14,-66 16,-78 5,-22 3,-22 -84,-22 h -88 l -13,55 c -6,30 -28,87 -48,127 -24,47 -58,94 -102,137 -36,36 -92,80 -125,97 -33,18 -88,39 -122,48 -34,8 -97,16 -140,16 -44,0 -106,-7 -138,-16 -32,-8 -89,-31 -127,-51 -45,-24 -90,-59 -132,-104 -37,-39 -78,-96 -97,-134 -18,-36 -38,-89 -44,-118 l -12,-52 -87,-3 -86,-2 v 0 h -20 c -11,0 -38,0 -60,0 -22,0 -46,-7 -55,-16 -8,-9 -15,-30 -15,-48 0,-17 6,-74 15,-126 8,-51 26,-128 40,-169 14,-41 41,-103 60,-136 18,-33 45,-76 59,-95 14,-20 54,-64 88,-99 34,-35 89,-82 121,-103 32,-22 90,-55 130,-74 39,-19 108,-44 152,-55 58,-16 111,-22 200,-22 92,-1 140,4 210,21 49,12 126,40 170,61 44,21 109,61 145,88 36,27 88,75 116,105 28,31 67,81 88,113 21,31 53,92 72,134 18,43 33,88 34,100 0,19 -6,21 -65,21 h -65 v 0 l -4,-8 c -2,-4 -19,-41 -38,-82 -20,-42 -57,-104 -83,-139 -27,-34 -76,-85 -109,-112 -34,-27 -91,-65 -126,-84 -36,-18 -97,-43 -135,-55 -39,-12 -111,-24 -161,-27 -65,-5 -113,-2 -174,11 -46,9 -110,27 -141,40 -31,12 -82,39 -114,60 -32,20 -83,60 -113,89 -30,28 -72,76 -92,107 -21,30 -50,79 -65,108 -15,29 -36,87 -46,129 -11,42 -20,84 -20,94 0,18 8,19 87,16 l 87,-2 12,-53 c 6,-29 26,-82 44,-118 19,-38 60,-95 97,-134 42,-45 87,-80 132,-104 38,-20 95,-43 127,-51 32,-9 94,-15 138,-15 43,0 106,7 140,15 34,9 88,30 121,48 33,17 90,61 126,97 36,35 77,88 92,116 15,28 28,54 28,57 v 7 0 l 1,2 c 0,1 10,33 21,70 l 21,67 156,3 156,3 3,52 c 1,29 -5,94 -13,145 -9,50 -27,122 -40,160 -13,38 -43,103 -67,146 -29,51 -75,108 -138,173 -66,66 -121,110 -175,142 -44,26 -123,61 -175,78 -83,28 -113,32 -230,36 -113,4 -150,1 -224,-16 -48,-12 -120,-36 -160,-55 -40,-18 -96,-49 -123,-68 -28,-18 -68,-49 -90,-69 -21,-19 -60,-60 -87,-89 -26,-30 -66,-85 -88,-122 -21,-38 -50,-98 -64,-134 -13,-36 -24,-72 -24,-80 0,-11 13,-14 60,-14 33,0 64,0 70,0 h 10 m 594,210 c -62,-18 -137,-62 -190,-112 -135,-128 -172,-328 -91,-493 82,-166 232,-254 413,-243 187,12 331,134 387,329 21,72 21,125 0,197 -47,164 -155,276 -306,316 -66,18 -161,20 -213,6 M 550,1528 c 0,-12 11,-41 25,-65 35,-60 90,-87 162,-81 61,5 96,26 132,81 l 24,36 22,-36 c 55,-92 186,-112 263,-40 26,24 61,88 62,111 0,12 -13,16 -54,16 -45,0 -55,-4 -59,-19 -3,-11 -17,-27 -31,-36 -33,-22 -76,-10 -95,28 -12,26 -14,27 -111,27 -88,0 -99,-2 -103,-19 -3,-11 -17,-27 -31,-36 -34,-22 -77,-9 -94,28 -11,24 -18,27 -62,27 -45,0 -50,-3 -50,-22"
       id="path2"
       inkscape:connector-curvature="0" />
    <path
       d="m 2026,1747 c -94,-29 -177,-96 -163,-132 11,-29 89,-19 162,20 56,29 76,35 132,35 46,0 79,-7 108,-21 52,-25 89,-63 81,-85 -6,-14 -34,-15 -245,-14 -132,1 -244,-1 -250,-5 -19,-11 -13,-78 11,-120 27,-48 106,-110 167,-130 58,-20 214,-20 269,-1 50,18 131,71 139,92 15,40 -59,43 -152,9 -91,-35 -165,-34 -236,2 -38,19 -55,34 -58,50 l -3,23 h 230 c 207,0 231,1 252,18 22,18 22,18 5,70 -26,79 -94,146 -178,177 -78,28 -198,33 -271,12"
       id="path4"
       inkscape:connector-curvature="0" />
    <path
       d="m 4154,1733 c -52,-19 -138,-91 -160,-134 -21,-42 -19,-132 6,-180 26,-52 108,-115 173,-135 58,-17 184,-20 235,-5 85,25 196,120 190,164 -3,18 -11,22 -53,25 -45,2 -51,0 -90,-37 -90,-90 -238,-94 -324,-10 -28,27 -31,37 -31,86 0,51 2,58 38,92 90,86 226,80 330,-14 35,-32 46,-36 83,-34 37,3 44,7 47,27 5,36 -89,123 -161,150 -73,27 -215,30 -283,5"
       id="path6"
       inkscape:connector-curvature="0" />
    <path
       d="m 4878,1734 c -92,-27 -162,-85 -194,-161 -21,-52 -18,-92 11,-152 82,-163 335,-214 503,-100 75,50 104,95 110,168 5,71 -18,121 -82,177 -77,67 -241,100 -348,68 m 14,-103 c -91,-46 -125,-126 -81,-191 56,-82 200,-108 300,-53 28,14 56,39 64,54 20,37 18,104 -3,135 -43,67 -196,97 -280,55"
       id="path8"
       inkscape:connector-curvature="0" />
    <path
       d="m 2564,1717 c -3,-7 -4,-105 -2,-218 l 3,-204 h 223 c 203,0 225,1 235,17 8,13 8,22 0,35 -9,15 -32,18 -170,23 l -158,5 v 45 45 l 156,2 c 169,3 191,10 169,52 -11,19 -20,21 -159,21 -101,0 -151,3 -159,12 -7,6 -12,28 -12,49 0,54 16,60 179,58 76,-1 143,1 149,5 14,8 15,37 2,53 -15,18 -448,18 -456,0"
       id="path10"
       inkscape:connector-curvature="0" />
    <path
       d="m 3095,1723 c -3,-4 -5,-97 -5,-208 0,-143 3,-205 12,-214 6,-6 38,-11 73,-11 75,0 75,0 138,140 58,126 74,152 88,143 10,-5 39,-65 105,-212 26,-57 47,-71 106,-71 30,0 59,5 65,12 9,8 13,68 13,204 0,161 -3,195 -16,208 -19,19 -90,21 -101,3 -5,-7 -8,-50 -8,-97 0,-116 -15,-116 -71,3 -25,52 -52,97 -60,100 -32,13 -85,6 -103,-12 -10,-10 -35,-55 -56,-100 -53,-112 -59,-111 -56,14 3,88 -10,105 -74,105 -25,0 -48,-3 -50,-7"
       id="path12"
       inkscape:connector-curvature="0" />
    <path
       d="m 3783,1719 c -8,-15 -7,-405 1,-419 4,-6 24,-10 45,-10 74,0 71,-11 71,214 0,120 -5,206 -10,214 -13,14 -98,15 -107,1"
       id="path14"
       inkscape:connector-curvature="0" />
    <path
       d="m 5390,1718 c -16,-19 -14,-401 2,-417 6,-6 39,-11 74,-11 71,0 87,12 120,97 31,77 88,185 99,186 10,0 42,-58 94,-173 47,-107 52,-110 127,-110 52,0 65,3 73,19 6,11 11,95 11,201 0,105 -5,189 -11,200 -8,15 -21,20 -59,20 -64,0 -75,-15 -67,-89 6,-60 0,-101 -15,-101 -4,0 -29,40 -53,89 -49,96 -60,105 -127,99 -32,-3 -36,-9 -78,-95 -25,-51 -49,-96 -54,-100 -17,-17 -27,24 -21,92 5,58 3,74 -9,88 -19,19 -91,23 -106,5"
       id="path16"
       inkscape:connector-curvature="0" />
  </g>
  <g
     id="layer102"
     style="fill:#3939fd;fill-rule:evenodd;stroke:#3939fd;stroke-width:10"
     transform="translate(-15,-631.87943)">
    <path
       d="m 200,1720 v -5 c 0,-2 -4,-15 -9,-27 -5,-13 -12,-43 -15,-66 l -6,-42 v 0 l 86,2 87,3 12,52 c 6,29 26,82 44,118 19,38 60,95 97,134 42,45 87,80 132,104 38,20 95,43 127,51 32,9 94,16 138,16 43,0 106,-8 140,-16 34,-9 89,-30 122,-48 33,-17 89,-61 125,-97 44,-43 78,-90 102,-137 20,-40 42,-97 48,-127 l 13,-55 h 88 c 87,0 89,0 84,22 -2,12 -10,47 -16,78 -7,30 -29,91 -49,135 -21,44 -59,108 -85,143 -27,34 -76,85 -109,113 -34,27 -97,67 -141,89 -44,22 -107,46 -140,55 -33,8 -99,18 -146,21 -61,5 -109,1 -169,-11 -46,-9 -110,-27 -141,-40 -31,-12 -82,-39 -114,-60 -32,-20 -83,-60 -113,-89 -30,-28 -73,-78 -95,-110 -22,-32 -53,-87 -69,-122 -16,-35 -28,-69 -28,-74 v -10"
       id="path19"
       inkscape:connector-curvature="0" />
    <path
       d="m 1590,1280 -43,5 c -23,3 -46,5 -50,5 -4,0 -28,0 -52,0 h -45 v 0 -7 c 0,-3 -13,-29 -28,-57 -15,-28 -56,-81 -92,-116 -36,-36 -93,-80 -126,-97 -33,-18 -87,-39 -121,-48 -34,-8 -97,-15 -140,-15 -44,0 -106,6 -138,15 -32,8 -89,31 -127,51 -45,24 -90,59 -132,104 -37,39 -78,96 -97,134 -18,36 -38,89 -44,118 l -12,53 -87,2 c -79,3 -87,2 -87,-16 0,-10 9,-52 20,-94 10,-42 31,-100 46,-129 15,-29 44,-78 65,-108 20,-31 62,-79 92,-107 30,-29 81,-69 113,-89 32,-21 83,-48 114,-60 31,-13 95,-31 141,-40 61,-13 109,-16 174,-11 50,3 122,15 161,27 38,12 99,37 135,55 35,19 92,57 126,84 33,27 82,78 109,112 26,35 63,97 83,139 19,41 36,78 38,82 l 4,8"
       id="path21"
       inkscape:connector-curvature="0" />
  </g>
  <g
     id="layer103"
     style="fill:#ffc600;fill-rule:evenodd;stroke:#ffc600;stroke-width:10"
     transform="translate(-15,-631.87943)">
    <path
       d="m 794,1930 c -62,-18 -137,-62 -190,-112 -135,-128 -172,-328 -91,-493 82,-166 232,-254 413,-243 187,12 331,134 387,329 21,72 21,125 0,197 -47,164 -155,276 -306,316 -66,18 -161,20 -213,6 M 550,1528 c 0,-12 11,-41 25,-65 35,-60 90,-87 162,-81 61,5 96,26 132,81 l 24,36 22,-36 c 55,-92 186,-112 263,-40 26,24 61,88 62,111 0,12 -13,16 -54,16 -45,0 -55,-4 -59,-19 -3,-11 -17,-27 -31,-36 -33,-22 -76,-10 -95,28 -12,26 -14,27 -111,27 -88,0 -99,-2 -103,-19 -3,-11 -17,-27 -31,-36 -34,-22 -77,-9 -94,28 -11,24 -18,27 -62,27 -45,0 -50,-3 -50,-22"
       id="path24"
       inkscape:connector-curvature="0" />
  </g>
</svg>

<!DOCTYPE svg PUBLIC "-//W3C//DTD SVG 20010904//EN" "http://www.w3.org/TR/2001/REC-SVG-20010904/DTD/svg10.dtd">
<svg version="1.0" xmlns="http://www.w3.org/2000/svg" width="600px" height="300px" viewBox="0 0 6000 3000" preserveAspectRatio="xMidYMid meet">
<g id="layer101" fill="#000000" stroke="#000000" stroke-width="10" fill-rule="evenodd">
<path d="M200 1720 L200 1730C200 1735,212 1769,228 1804 C244 1839,275 1894,297 1926 C319 1958,362 2008,392 2036 C422 2065,473 2105,505 2125 C537 2146,588 2173,619 2185 C650 2198,714 2216,760 2225 C820 2237,868 2241,929 2236 C976 2233,1042 2223,1075 2215 C1108 2206,1171 2182,1215 2160 C1259 2138,1322 2098,1356 2071 C1389 2043,1438 1992,1465 1958 C1491 1923,1529 1859,1550 1815 C1570 1771,1592 1710,1599 1680 C1605 1649,1613 1614,1615 1602 C1620 1580,1618 1580,1531 1580 L1443 1580 1430 1635 C1424 1665,1402 1722,1382 1762 C1358 1809,1324 1856,1280 1899 C1244 1935,1188 1979,1155 1996 C1122 2014,1067 2035,1033 2044 C999 2052,936 2060,893 2060 C849 2060,787 2053,755 2044 C723 2036,666 2013,628 1993 C583 1969,538 1934,496 1889 C459 1850,418 1793,399 1755 C381 1719,361 1666,355 1637 L343 1585 256 1582 L170 1580L170 1580 L150 1580C139 1580,112 1580,90 1580 C68 1580,44 1573,35 1564 C27 1555,20 1534,20 1516 C20 1499,26 1442,35 1390 C43 1339,61 1262,75 1221 C89 1180,116 1118,135 1085 C153 1052,180 1009,194 990 C208 970,248 926,282 891 C316 856,371 809,403 788 C435 766,493 733,533 714 C572 695,641 670,685 659 C743 643,796 637,885 637 C977 636,1025 641,1095 658 C1144 670,1221 698,1265 719 C1309 740,1374 780,1410 807 C1446 834,1498 882,1526 912 C1554 943,1593 993,1614 1025 C1635 1056,1667 1117,1686 1159 C1704 1202,1719 1247,1720 1259 C1720 1278,1714 1280,1655 1280 L1590 1280L1590 1280 L1586 1272C1584 1268,1567 1231,1548 1190 C1528 1148,1491 1086,1465 1051 C1438 1017,1389 966,1356 939 C1322 912,1265 874,1230 855 C1194 837,1133 812,1095 800 C1056 788,984 776,934 773 C869 768,821 771,760 784 C714 793,650 811,619 824 C588 836,537 863,505 884 C473 904,422 944,392 973 C362 1001,320 1049,300 1080 C279 1110,250 1159,235 1188 C220 1217,199 1275,189 1317 C178 1359,169 1401,169 1411 C169 1429,177 1430,256 1427 L343 1425 355 1372 C361 1343,381 1290,399 1254 C418 1216,459 1159,496 1120 C538 1075,583 1040,628 1016 C666 996,723 973,755 965 C787 956,849 950,893 950 C936 950,999 957,1033 965 C1067 974,1121 995,1154 1013 C1187 1030,1244 1074,1280 1110 C1316 1145,1357 1198,1372 1226 C1387 1254,1400 1280,1400 1283 L1400 1290L1400 1290 L1401 1292C1401 1293,1411 1325,1422 1362 L1443 1429 1599 1432 L1755 1435 1758 1487 C1759 1516,1753 1581,1745 1632 C1736 1682,1718 1754,1705 1792 C1692 1830,1662 1895,1638 1938 C1609 1989,1563 2046,1500 2111 C1434 2177,1379 2221,1325 2253 C1281 2279,1202 2314,1150 2331 C1067 2359,1037 2363,920 2367 C807 2371,770 2368,696 2351 C648 2339,576 2315,536 2296 C496 2278,440 2247,413 2228 C385 2210,345 2179,323 2159 C302 2140,263 2099,236 2070 C210 2040,170 1985,148 1948 C127 1910,98 1850,84 1814 C71 1778,60 1742,60 1734 C60 1723,73 1720,120 1720 C153 1720,184 1720,190 1720 L200 1720M794 1930 C732 1912,657 1868,604 1818 C469 1690,432 1490,513 1325 C595 1159,745 1071,926 1082 C1113 1094,1257 1216,1313 1411 C1334 1483,1334 1536,1313 1608 C1266 1772,1158 1884,1007 1924 C941 1942,846 1944,794 1930 M550 1528 C550 1516,561 1487,575 1463 C610 1403,665 1376,737 1382 C798 1387,833 1408,869 1463 L893 1499 915 1463 C970 1371,1101 1351,1178 1423 C1204 1447,1239 1511,1240 1534 C1240 1546,1227 1550,1186 1550 C1141 1550,1131 1546,1127 1531 C1124 1520,1110 1504,1096 1495 C1063 1473,1020 1485,1001 1523 C989 1549,987 1550,890 1550 C802 1550,791 1548,787 1531 C784 1520,770 1504,756 1495 C722 1473,679 1486,662 1523 C651 1547,644 1550,600 1550 C555 1550,550 1547,550 1528 " />
<path d="M2026 1747 C1932 1718,1849 1651,1863 1615 C1874 1586,1952 1596,2025 1635 C2081 1664,2101 1670,2157 1670 C2203 1670,2236 1663,2265 1649 C2317 1624,2354 1586,2346 1564 C2340 1550,2312 1549,2101 1550 C1969 1551,1857 1549,1851 1545 C1832 1534,1838 1467,1862 1425 C1889 1377,1968 1315,2029 1295 C2087 1275,2243 1275,2298 1294 C2348 1312,2429 1365,2437 1386 C2452 1426,2378 1429,2285 1395 C2194 1360,2120 1361,2049 1397 C2011 1416,1994 1431,1991 1447 L1988 1470 2218 1470 C2425 1470,2449 1471,2470 1488 C2492 1506,2492 1506,2475 1558 C2449 1637,2381 1704,2297 1735 C2219 1763,2099 1768,2026 1747 " />
<path d="M4154 1733 C4102 1714,4016 1642,3994 1599 C3973 1557,3975 1467,4000 1419 C4026 1367,4108 1304,4173 1284 C4231 1267,4357 1264,4408 1279 C4493 1304,4604 1399,4598 1443 C4595 1461,4587 1465,4545 1468 C4500 1470,4494 1468,4455 1431 C4365 1341,4217 1337,4131 1421 C4103 1448,4100 1458,4100 1507 C4100 1558,4102 1565,4138 1599 C4228 1685,4364 1679,4468 1585 C4503 1553,4514 1549,4551 1551 C4588 1554,4595 1558,4598 1578 C4603 1614,4509 1701,4437 1728 C4364 1755,4222 1758,4154 1733 " />
<path d="M4878 1734 C4786 1707,4716 1649,4684 1573 C4663 1521,4666 1481,4695 1421 C4777 1258,5030 1207,5198 1321 C5273 1371,5302 1416,5308 1489 C5313 1560,5290 1610,5226 1666 C5149 1733,4985 1766,4878 1734 M4892 1631 C4801 1585,4767 1505,4811 1440 C4867 1358,5011 1332,5111 1387 C5139 1401,5167 1426,5175 1441 C5195 1478,5193 1545,5172 1576 C5129 1643,4976 1673,4892 1631 " />
<path d="M2564 1717 C2561 1710,2560 1612,2562 1499 L2565 1295 2788 1295 C2991 1295,3013 1296,3023 1312 C3031 1325,3031 1334,3023 1347 C3014 1362,2991 1365,2853 1370 L2695 1375 2695 1420 L2695 1465 2851 1467 C3020 1470,3042 1477,3020 1519 C3009 1538,3000 1540,2861 1540 C2760 1540,2710 1543,2702 1552 C2695 1558,2690 1580,2690 1601 C2690 1655,2706 1661,2869 1659 C2945 1658,3012 1660,3018 1664 C3032 1672,3033 1701,3020 1717 C3005 1735,2572 1735,2564 1717 " />
<path d="M3095 1723 C3092 1719,3090 1626,3090 1515 C3090 1372,3093 1310,3102 1301 C3108 1295,3140 1290,3175 1290 C3250 1290,3250 1290,3313 1430 C3371 1556,3387 1582,3401 1573 C3411 1568,3440 1508,3506 1361 C3532 1304,3553 1290,3612 1290 C3642 1290,3671 1295,3677 1302 C3686 1310,3690 1370,3690 1506 C3690 1667,3687 1701,3674 1714 C3655 1733,3584 1735,3573 1717 C3568 1710,3565 1667,3565 1620 C3565 1504,3550 1504,3494 1623 C3469 1675,3442 1720,3434 1723 C3402 1736,3349 1729,3331 1711 C3321 1701,3296 1656,3275 1611 C3222 1499,3216 1500,3219 1625 C3222 1713,3209 1730,3145 1730 C3120 1730,3097 1727,3095 1723 " />
<path d="M3783 1719 C3775 1704,3776 1314,3784 1300 C3788 1294,3808 1290,3829 1290 C3903 1290,3900 1279,3900 1504 C3900 1624,3895 1710,3890 1718 C3877 1732,3792 1733,3783 1719 " />
<path d="M5390 1718 C5374 1699,5376 1317,5392 1301 C5398 1295,5431 1290,5466 1290 C5537 1290,5553 1302,5586 1387 C5617 1464,5674 1572,5685 1573 C5695 1573,5727 1515,5779 1400 C5826 1293,5831 1290,5906 1290 C5958 1290,5971 1293,5979 1309 C5985 1320,5990 1404,5990 1510 C5990 1615,5985 1699,5979 1710 C5971 1725,5958 1730,5920 1730 C5856 1730,5845 1715,5853 1641 C5859 1581,5853 1540,5838 1540 C5834 1540,5809 1580,5785 1629 C5736 1725,5725 1734,5658 1728 C5626 1725,5622 1719,5580 1633 C5555 1582,5531 1537,5526 1533 C5509 1516,5499 1557,5505 1625 C5510 1683,5508 1699,5496 1713 C5477 1732,5405 1736,5390 1718 " />
</g>
<g id="layer102" fill="#3939fd" stroke="#3939fd" stroke-width="10" fill-rule="evenodd">
<path d="M200 1720 L200 1715C200 1713,196 1700,191 1688 C186 1675,179 1645,176 1622 L170 1580L170 1580 L256 1582L343 1585 355 1637 C361 1666,381 1719,399 1755 C418 1793,459 1850,496 1889 C538 1934,583 1969,628 1993 C666 2013,723 2036,755 2044 C787 2053,849 2060,893 2060 C936 2060,999 2052,1033 2044 C1067 2035,1122 2014,1155 1996 C1188 1979,1244 1935,1280 1899 C1324 1856,1358 1809,1382 1762 C1402 1722,1424 1665,1430 1635 L1443 1580 1531 1580 C1618 1580,1620 1580,1615 1602 C1613 1614,1605 1649,1599 1680 C1592 1710,1570 1771,1550 1815 C1529 1859,1491 1923,1465 1958 C1438 1992,1389 2043,1356 2071 C1322 2098,1259 2138,1215 2160 C1171 2182,1108 2206,1075 2215 C1042 2223,976 2233,929 2236 C868 2241,820 2237,760 2225 C714 2216,650 2198,619 2185 C588 2173,537 2146,505 2125 C473 2105,422 2065,392 2036 C362 2008,319 1958,297 1926 C275 1894,244 1839,228 1804 C212 1769,200 1735,200 1730 L200 1720" />
<path d="M1590 1280 L1547 1285C1524 1288,1501 1290,1497 1290 C1493 1290,1469 1290,1445 1290 L1400 1290L1400 1290 L1400 1283C1400 1280,1387 1254,1372 1226 C1357 1198,1316 1145,1280 1110 C1244 1074,1187 1030,1154 1013 C1121 995,1067 974,1033 965 C999 957,936 950,893 950 C849 950,787 956,755 965 C723 973,666 996,628 1016 C583 1040,538 1075,496 1120 C459 1159,418 1216,399 1254 C381 1290,361 1343,355 1372 L343 1425 256 1427 C177 1430,169 1429,169 1411 C169 1401,178 1359,189 1317 C199 1275,220 1217,235 1188 C250 1159,279 1110,300 1080 C320 1049,362 1001,392 973 C422 944,473 904,505 884 C537 863,588 836,619 824 C650 811,714 793,760 784 C821 771,869 768,934 773 C984 776,1056 788,1095 800 C1133 812,1194 837,1230 855 C1265 874,1322 912,1356 939 C1389 966,1438 1017,1465 1051 C1491 1086,1528 1148,1548 1190 C1567 1231,1584 1268,1586 1272 L1590 1280" />
</g>
<g id="layer103" fill="#ffc600" stroke="#ffc600" stroke-width="10" fill-rule="evenodd">
<path d="M794 1930 C732 1912,657 1868,604 1818 C469 1690,432 1490,513 1325 C595 1159,745 1071,926 1082 C1113 1094,1257 1216,1313 1411 C1334 1483,1334 1536,1313 1608 C1266 1772,1158 1884,1007 1924 C941 1942,846 1944,794 1930 M550 1528 C550 1516,561 1487,575 1463 C610 1403,665 1376,737 1382 C798 1387,833 1408,869 1463 L893 1499 915 1463 C970 1371,1101 1351,1178 1423 C1204 1447,1239 1511,1240 1534 C1240 1546,1227 1550,1186 1550 C1141 1550,1131 1546,1127 1531 C1124 1520,1110 1504,1096 1495 C1063 1473,1020 1485,1001 1523 C989 1549,987 1550,890 1550 C802 1550,791 1548,787 1531 C784 1520,770 1504,756 1495 C722 1473,679 1486,662 1523 C651 1547,644 1550,600 1550 C555 1550,550 1547,550 1528 " />
</g>

</svg>
